icon-themes/sifr_svg/cmd/lc_closedoc.svg

<svg viewBox="0 0 24 24" xmlns="http://www.w3.org/2000/svg"><path d="m12 2a10 10 0 0 0 -10 10 10 10 0 0 0 10 10 10 10 0 0 0 10-10 10 10 0 0 0 -10-10zm0 2a8 8 0 0 1 8 8 8 8 0 0 1 -8 8 8 8 0 0 1 -8-8 8 8 0 0 1 8-8zm-4 4v1.4140625l2.585938 2.5859375-2.585938 2.585938v1.414062h1.4140625l2.5859375-2.585938 2.585938 2.585938h1.414062v-1.414062l-2.585938-2.585938 2.585938-2.5859375v-1.4140625h-1.414062l-2.585938 2.585938-2.5859375-2.585938z" fill="#555753"/></svg>

<svg xmlns="http://www.w3.org/2000/svg" viewBox="0 0 24 24">
  <path
     style="fill:#555753"
     d="M 12 2 A 10 10 0 0 0 2 12 A 10 10 0 0 0 12 22 A 10 10 0 0 0 22 12 A 10 10 0 0 0 12 2 z M 12 4 A 8 8 0 0 1 20 12 A 8 8 0 0 1 12 20 A 8 8 0 0 1 4 12 A 8 8 0 0 1 12 4 z M 8 8 L 8 9.4140625 L 10.585938 12 L 8 14.585938 L 8 16 L 9.4140625 16 L 12 13.414062 L 14.585938 16 L 16 16 L 16 14.585938 L 13.414062 12 L 16 9.4140625 L 16 8 L 14.585938 8 L 12 10.585938 L 9.4140625 8 L 8 8 z "
     />
</svg>
